packages/core/src/svgs/grc.svg

<svg width="24" height="24" viewBox="0 0 24 24" fill="none" xmlns="http://www.w3.org/2000/svg">
<g clip-path="url(#clip0_31_11077)">
<path d="M0 0H24V24H0V0Z" fill="url(#paint0_linear_31_11077)"/>
<path fill-rule="evenodd" clip-rule="evenodd" d="M12 5.2115L6.42857 8.49478V15.0772L12 18.3601L17.5714 15.0772V8.49436L12 5.2115ZM18 8.25007L12 4.71436L6 8.25007V15.3215L12 18.8572L18 15.3215V8.25007Z" fill="white"/>
<path d="M16.3933 11.0899C16.1139 9.69236 15.1291 8.68736 14.0178 7.90522L12.4543 8.73236C13.5541 9.34522 14.5501 10.0725 14.8586 11.1431H16.4036C16.4003 11.1253 16.3969 11.1076 16.3933 11.0899ZM12.0073 6.70179C12.5131 6.97822 13.0702 7.28251 13.6145 7.63351L12.0001 8.48722C11.7973 8.38093 11.5942 8.27722 11.3936 8.17565C11.0544 8.00584 10.7186 7.82924 10.3865 7.64593C10.9129 7.30942 11.4525 6.99389 12.0039 6.70008C12.0049 6.70064 12.0063 6.70121 12.0073 6.70179ZM11.5578 6.4545C11.2406 6.27793 10.9565 6.11165 10.7242 5.94922C10.2219 6.24922 9.21777 6.84065 9.21777 6.81065C9.41877 7.01936 9.6772 7.2135 9.97335 7.40079C10.5939 7.00608 10.9899 6.76565 11.5578 6.4545ZM16.4658 12.0002H12.0001L11.1429 13.7145H14.0109C13.3192 14.3531 12.3339 14.8944 11.3581 15.4305C10.5896 15.8531 9.82677 16.2722 9.21777 16.7334C9.72006 17.0261 10.7242 17.6338 10.7242 17.6488C10.8918 17.5554 11.0653 17.4602 11.2428 17.3621C13.4713 16.1351 16.3488 14.5506 16.4658 12.0002Z" fill="white"/>
<path d="M7.61227 11.0899C8.05927 8.85408 10.3123 7.62279 11.9983 6.70179C12.4954 6.43008 12.9437 6.18493 13.2814 5.94922C13.7837 6.24922 14.7878 6.84065 14.7878 6.81065C14.3036 7.31422 13.4828 7.73208 12.6116 8.17565C10.896 9.04865 8.98327 10.0228 9.05099 11.9496C9.09384 13.1668 10.227 14.0364 11.5701 14.8254C11.0108 15.1386 10.6178 15.3606 10.0208 15.6979C8.43641 14.5455 7.21327 13.0845 7.61227 11.0899ZM10.41 15.9705C10.9403 15.6705 11.4713 15.3717 12.003 15.0739C12.216 15.1939 12.4316 15.3122 12.6471 15.4305C12.969 15.6075 13.29 15.7836 13.5986 15.9628C13.5176 16.0142 13.4408 16.0639 13.3667 16.1115C12.8901 16.4171 12.534 16.6459 12.006 16.9421C11.4746 16.6425 10.929 16.3211 10.41 15.9705ZM12.4436 17.1859C12.5511 17.2459 12.6578 17.3042 12.7628 17.3621C12.9407 17.4602 13.1143 17.5554 13.2814 17.6492C13.2814 17.6338 14.2856 17.0261 14.7878 16.7334C14.5342 16.5439 14.2716 16.3667 14.001 16.2024L14.0066 16.2109C13.8608 16.3035 13.7276 16.3892 13.602 16.4698C13.2219 16.7181 12.8356 16.9569 12.4436 17.1859Z" fill="white"/>
</g>
<defs>
<linearGradient id="paint0_linear_31_11077" x1="12" y1="0" x2="12" y2="24" gradientUnits="userSpaceOnUse">
<stop stop-color="#7401E2"/>
<stop offset="1" stop-color="#41007F"/>
</linearGradient>
<clipPath id="clip0_31_11077">
<rect width="24" height="24" fill="white"/>
</clipPath>
</defs>
</svg>

<svg xmlns="http://www.w3.org/2000/svg" width="24" height="24" fill="none" viewBox="0 0 24 24"><g clip-path="url(#a)"><path fill="url(#b)" d="M0 0h24v24H0z"/><path fill="#fff" fill-rule="evenodd" d="M12 5.212 6.429 8.495v6.582L12 18.36l5.571-3.283V8.494zm6 3.038-6-3.536L6 8.25v7.072l6 3.535 6-3.535z" clip-rule="evenodd"/><path fill="#fff" d="M16.393 11.09c-.28-1.398-1.264-2.403-2.375-3.185l-1.564.827c1.1.613 2.096 1.34 2.405 2.411h1.545zm-4.386-4.388c.506.276 1.063.58 1.608.932L12 8.487q-.305-.16-.606-.311a28 28 0 0 1-1.008-.53 24 24 0 0 1 1.618-.946zm-.45-.247a10 10 0 0 1-.833-.506c-.502.3-1.506.892-1.506.862.2.208.46.402.755.59a25 25 0 0 1 1.585-.946M16.467 12H12l-.857 1.714h2.868c-.692.64-1.677 1.18-2.653 1.717-.768.422-1.531.841-2.14 1.302.502.293 1.506.9 1.506.916l.519-.287c2.228-1.227 5.106-2.811 5.223-5.362"/><path fill="#fff" d="M7.612 11.09c.447-2.236 2.7-3.467 4.386-4.388.497-.272.946-.517 1.283-.753.503.3 1.507.892 1.507.862-.484.503-1.305.921-2.176 1.365-1.716.873-3.629 1.847-3.561 3.774.043 1.217 1.176 2.086 2.52 2.875-.56.314-.953.536-1.55.873-1.585-1.152-2.808-2.613-2.409-4.608m2.798 4.88q.795-.45 1.593-.896.32.18.644.357c.322.177.643.353.952.532q-.121.076-.232.149c-.477.305-.833.534-1.361.83-.531-.3-1.077-.62-1.596-.972m2.034 1.216.319.176q.267.147.518.287c0-.015 1.005-.623 1.507-.916a10 10 0 0 0-.787-.53l.006.008-.405.259q-.57.372-1.158.716"/></g><defs><linearGradient id="b" x1="12" x2="12" y1="0" y2="24" gradientUnits="userSpaceOnUse"><stop stop-color="#7401E2"/><stop offset="1" stop-color="#41007F"/></linearGradient><clipPath id="a"><path fill="#fff" d="M0 0h24v24H0z"/></clipPath></defs></svg>
